src/assets/icons/file-o.svg

<svg width="14" height="14" viewBox="0 0 14 14" fill="none" xmlns="http://www.w3.org/2000/svg">
<g id="file-o">
<path id="Vector" fill-rule="evenodd" clip-rule="evenodd" d="M3.79998 0C2.5886 0 1.59998 0.988629 1.59998 2.2V11.8C1.59998 13.0114 2.5886 14 3.79998 14H10.2C11.4113 14 12.4 13.0114 12.4 11.8V5C12.4 4.84087 12.3368 4.68826 12.2242 4.57574L7.82424 0.175736C7.71172 0.0632141 7.55911 0 7.39998 0H3.79998ZM2.79998 2.2C2.79998 1.65137 3.25135 1.2 3.79998 1.2H6.79998V5C6.79998 5.33137 7.0686 5.6 7.39998 5.6H11.2V11.8C11.2 12.3486 10.7486 12.8 10.2 12.8H3.79998C3.25135 12.8 2.79998 12.3486 2.79998 11.8V2.2ZM10.3514 4.4L7.99998 2.04853V4.4H10.3514Z" fill="black"/>
</g>
</svg>

<svg xmlns="http://www.w3.org/2000/svg" fill="none" viewBox="0 0 14 14"><path fill="#000" fill-rule="evenodd" d="M3.8 0C2.589 0 1.6.989 1.6 2.2v9.6c0 1.211.989 2.2 2.2 2.2h6.4c1.211 0 2.2-.989 2.2-2.2V5a.6.6 0 0 0-.176-.424l-4.4-4.4A.6.6 0 0 0 7.4 0zm-1 2.2c0-.549.451-1 1-1h3V5a.6.6 0 0 0 .6.6h3.8v6.2c0 .549-.451 1-1 1H3.8c-.549 0-1-.451-1-1zm7.551 2.2L8 2.049V4.4z" clip-rule="evenodd"/></svg>
